!!!COM: Bach, Johann Sebastian
!!!CDT: 1685/3//-1750/7/28/
!!!OTL@@DE: Wenn wir in hoechsten Noeten sein
!!!AGN: 4-Part Chorale; Chorale Prelude
!!!SCT: BH 068
!!!SCT: BWV 431
**harm	**root	**kern	**kern	**kern	**kern
!	!	!bass	!tenor	!alto	!soprno
*	*Iorgan	*Iorgan	*Iorgan	*Iorgan	*Iorgan
*	*	*clefF4	*clefF4	*clefG2	*clefG2
*M4/4	*M4/4	*M4/4	*M4/4	*M4/4	*M4/4
*met(c)	*met(c)	*met(c)	*met(c)	*met(c)	*met(c)
*MM60	*MM60	*MM60	*MM60	*MM60	*MM60
*k[f#c#g#]	*k[f#c#g#]	*k[f#c#g#]	*k[f#c#g#]	*k[f#c#g#]	*k[f#c#g#]
*A:	*A:	*A:	*A:	*A:	*A:
I	4FF	8A	8c#	[4e	4a
.	.	8G#	8B	.	.
=1	=1	=1	=1	=1	=1
viiob/V	4BB	4F#	4A	8e]	4a
.	.	.	.	8d#	.
Vb	8CC	8G#	8e	[4e	4b
V7	8CC	8E	8dy	.	.
I	4FF	4A	8c#	8e]	4cc#
.	.	.	8d	8f#	.
V	4CC	4E	4e	4g#	8b
.	.	.	.	.	8cc#
=2	=2	=2	=2	=2	=2
IVb	8BB-	8F#	8A	8a	4dd
V7b	8CC	8G#	8e	[8b	.
I	4FF	4A	4e	8b]	4cc#
.	.	.	.	[8a	.
ii7b	8GG	4D	8f#	8a]	4.b
iib	8GG	.	8d	16g#	.
.	.	.	.	16f#	.
V	4CC	4E	8B	4g#	.
.	.	.	16e	.	8b
.	.	.	16d	.	.
=3	=3	=3	=3	=3	=3
I;	2FF;	2AA;	2c#;	2e;	2a;
r	4r	4r	4r	4r	4r
I	4FF	8A	4e	[4a	4cc#
.	.	8G	.	.	.
=4	=4	=4	=4	=4	=4
IVb	8BB-	8F#	8f#	8a]	4dd
V7b	8CC	8G#	8e	[8b	.
I	4FF	4A	4e	8b]	4cc#
.	.	.	.	[8a	.
V7b/V	8GG	8D#	8f#	8a]	4b
V	8CC	8E	4e	8g#	.
viio/V	4BB	4F#	.	4f#	4a
.	.	.	8d#	.	.
!!linebreak: 2
=5	=5	=5	=5	=5	=5
V	4CC	8E	4e	4B	4g#
.	.	8Dy	.	.	.
Ib	4FF	8C#	4A	4e	4a
.	.	8AA	.	.	.
V;	4CC;	4E;	4G#;	4e;	4b;
iii	4AA	4C#	4c#	8g#	4ee
.	.	.	.	8a#	.
=6	=6	=6	=6	=6	=6
ii	8GG	4BB	8f#	8b	4dd
viioD7/vi	8CC#	.	8e#	8g#	.
vi	4DD	8F#	4f#	8a	4cc#
.	.	8E	.	8g#	.
Vb/V	4GG	4D#	4B	[4f#	8b
.	.	.	.	.	8a
V	4CC	4E	4B	8f#]	4g#
.	.	.	.	[8e	.
=7	=7	=7	=7	=7	=7
I	4FF	4AA	4c#	8e]	4a
.	.	.	.	16f#	.
.	.	.	.	16e	.
V/V	4GG	4BB	8B	4d#	4f#
.	.	.	8A	.	.
V;	4CC;	4E;	4G#;	4B;	4e;
I	4FF	4AA	4e	8a	4cc#
.	.	.	.	8g	.
=8	=8	=8	=8	=8	=8
ii	4GG	4BB	4d	8f#	4dd
.	.	.	.	8g#	.
Ib	4FF	8C#	[4e	[4a	4cc#
.	.	8D	.	.	.
V	4CC	4E	8.e]	8a]	4b
.	.	.	.	[8g#	.
.	.	.	16d	.	.
vi	8DD	4F#	8c#	8g#]	4a
IVb	8BB-	.	8d	16f#	.
.	.	.	.	16g#	.
=9	=9	=9	=9	=9	=9
Ib	4FF	8C#	4e	4.a	4cc#
.	.	8D	.	.	.
V	4CC	4E	8.e	.	4b
.	.	.	.	8g#	.
.	.	.	16d	.	.
I;	4FF;	4AA;	4c#;	4e;	4a;
==	==	==	==	==	==
*-	*-	*-	*-	*-	*-
!!chor2scor: -l 2 -s 0.6 -o %b.pmx
!!!YEC: Copyright 1994, David Huron
!!!YEC: Changes/Additions Copyright 2001 by Craig Stuart Sapp
!!!license: GNU General Public License (http://www.gnu.org/copyleft/gpl.html)
!!!SMA: 371 Bach Chorales, edited by Ludwig Erk, C.F. Peters
!!!PDT: 1850, 1865
!!!ONB: Harmony and Root analysis done manually
